static/logos/sanity.svg

<svg width="512" height="104" viewBox="0 0 512 104" fill="none" xmlns="http://www.w3.org/2000/svg">
<path d="M381.462 36.986V101.82H360.576V26.833L381.462 36.986Z" fill="#37322e"/>
<path d="M85.8652 89.781L101.53 103.415L167.524 69.0399L160.707 52.6501L85.8652 89.781ZM360.576 48.0088L413.661 20.4507L404.669 4.93115L360.576 26.8326V48.0088Z" fill="#37322e"/>
<path d="M211.182 31.9095V101.82H191.166V2.17578L211.182 31.9095ZM85.8652 89.7814L101.53 103.415L131.699 27.9933L121.981 2.17578L85.8652 89.7814Z" fill="#37322e"/>
<path d="M121.981 2.17578H142.577L180.723 101.82H159.547L121.981 2.17578ZM214.228 2.17578L258.176 70.2007V101.82L191.166 2.17578H214.228ZM295.887 2.17578H316.628V101.82H295.887V2.17578ZM360.576 20.4511H328.666V2.17578H403.073L413.661 20.4511H381.462H360.576Z" fill="#37322e"/>
<path d="M475.014 63.9639V101.82H454.418V63.9639" fill="#37322e"/>
<path d="M489.228 2.17578L454.418 63.9639H475.014L511.13 2.17578H489.228Z" fill="#37322e"/>
<path d="M454.418 63.9639L418.448 2.17578H441.074L465.296 44.5282L454.418 63.9639Z" fill="#37322e"/>
<path d="M8.55756 13.7788C8.55756 27.5578 17.1151 35.8253 34.2301 40.1765L52.3604 44.3828C68.6052 48.1539 78.468 57.4366 78.468 72.521C78.6131 79.0479 76.4374 85.4298 72.5213 90.6513C72.5213 75.5669 64.689 67.4445 45.9785 62.5131L28.1383 58.4519C13.7791 55.261 2.75586 47.5737 2.75586 31.1839C2.75586 24.9471 4.78645 18.7103 8.55756 13.7788Z" fill="#37322e"/>
<path d="M258.176 65.1242V2.17578H278.191V101.82H258.176V65.1242Z" fill="#37322e"/>
<path d="M61.3529 68.7501C69.0402 73.6815 72.5212 80.6435 72.5212 90.6515C65.9943 98.9189 54.826 103.415 41.6272 103.415C19.4356 103.415 3.62602 92.392 0.290039 73.3914H21.6113C24.3671 82.094 31.6192 86.1552 41.4821 86.1552C53.2306 86.3002 61.2079 79.9183 61.3529 68.7501ZM8.55746 13.6339C14.7943 5.51152 25.5274 0.580078 38.5813 0.580078C61.3529 0.580078 74.4068 12.6186 77.7427 29.4435H57.1467C54.826 22.7716 49.1694 17.5501 38.8713 17.5501C27.7031 17.6951 20.1609 24.077 19.7257 34.2299C12.2517 30.1081 8.26738 22.0464 8.55746 13.6339Z" fill="#37322e"/>
</svg>

<svg fill="none" xmlns="http://www.w3.org/2000/svg" viewBox="0 0 512 104"><path d="M381.46 36.99v64.83h-20.88V26.83L381.46 37z" fill="#37322e"/><path d="M85.87 89.78l15.66 13.64 66-34.38-6.82-16.39-74.84 37.13zm274.7-41.77l53.1-27.56-9-15.52-44.1 21.9v21.18z" fill="#37322e"/><path d="M211.18 31.91v69.91h-20.01V2.18l20.01 29.73zM85.87 89.78l15.66 13.64 30.17-75.43-9.72-25.81-36.11 87.6z" fill="#37322e"/><path d="M121.98 2.18h20.6l38.14 99.64h-21.17L121.98 2.18zm92.25 0l43.95 68.02v31.62L191.17 2.18h23.06zm81.66 0h20.74v99.64h-20.74V2.18zm64.69 18.27h-31.91V2.18h74.4l10.6 18.27h-53.1zM475.01 63.96v37.86h-20.6V63.96M489.23 2.18l-34.81 61.78h20.6l36.11-61.78h-21.9z" fill="#37322e"/><path d="M454.42 63.96L418.45 2.18h22.62l24.23 42.35-10.88 19.43zM8.56 13.78c0 13.78 8.56 22.05 25.67 26.4l18.13 4.2c16.25 3.77 26.1 13.06 26.1 28.14a29.25 29.25 0 01-5.94 18.13c0-15.08-7.83-23.2-26.54-28.14l-17.84-4.06C13.78 55.26 2.76 47.57 2.76 31.18c0-6.23 2.03-12.47 5.8-17.4zM258.18 65.12V2.18h20.01v99.64h-20.01v-36.7z" fill="#37322e"/><path d="M61.35 68.75c7.69 4.93 11.17 11.9 11.17 21.9-6.53 8.27-17.7 12.77-30.9 12.77-22.18 0-38-11.03-41.33-30.03h21.32c2.76 8.7 10 12.77 19.87 12.77 11.75.14 19.73-6.24 19.87-17.41zM8.55 13.63C14.8 5.51 25.54.58 38.59.58c22.77 0 35.83 12.04 39.16 28.86h-20.6c-2.31-6.67-7.97-11.89-18.27-11.89-11.17.15-18.7 6.53-19.14 16.68-7.48-4.12-11.46-12.18-11.17-20.6z" fill="#37322e"/></svg>
